resources/svg/major-microphone.svg

<svg xmlns="http://www.w3.org/2000/svg" viewBox="0 0 20 20" fill="currentColor"><path d="M6 4a4 4 0 1 1 8 0v4a4 4 0 0 1-8 0v-4z"/><path d="M11 15v4h-2v-4h2z"/><path d="M4 8a6 6 0 0 0 12 0h2a8 8 0 1 1-16 0h2z"/><path d="M16 6h.5a1.5 1.5 0 0 1 1.5 1.5v.5h-2v-2zm-14 1.5a1.5 1.5 0 0 1 1.5-1.5h.5v2h-2v-.5zm5 12a1.5 1.5 0 0 1 1.5-1.5h3a1.5 1.5 0 0 1 1.5 1.5v.5h-6v-.5z"/></svg>

<svg xmlns="http://www.w3.org/2000/svg" viewBox="0 0 20 20" fill="currentColor"><path d="M6 4a4 4 0 118 0v4a4 4 0 01-8 0V4z" fill="#5C5F62"/><path d="M11 15v4H9v-4h2z" fill="#5C5F62"/><path d="M4 8a6 6 0 0012 0h2A8 8 0 112 8h2z" fill="#5C5F62"/><path d="M16 6h.5A1.5 1.5 0 0118 7.5V8h-2V6zM2 7.5A1.5 1.5 0 013.5 6H4v2H2v-.5zM7 19.5A1.5 1.5 0 018.5 18h3a1.5 1.5 0 011.5 1.5v.5H7v-.5z" fill="#5C5F62"/></svg>
